X: 11652
T: Eileen O'Callaghan's
R: reel
M: 4/4
K: Gmajor
G2 BG DGBA|GABd cAFA|GBB2 dcBc|defd cAFA|
G2 BG DGBA|GABd cAFA|GBB2 dBB2|defd cAFA||
dggf g2 fg|add2 adfe|dggf g2 fe|defd cAFA|
dggf g2 fg|abag fgaf|dgg2 bgg2|defd cAFA||

